site/static/img/page-produits/lingettes.svg

<svg height="143" viewBox="0 0 143 143" width="143" xmlns="http://www.w3.org/2000/svg" xmlns:xlink="http://www.w3.org/1999/xlink"><mask id="a" fill="#fff"><path d="m.06079276.25021017h86.57258024v54.03542583h-86.57258024z" fill="#fff" fill-rule="evenodd"/></mask><g fill="none" fill-rule="evenodd"><circle cx="71.5" cy="71.5" fill="#ffd8dd" r="71.5"/><g transform="matrix(.96592583 -.25881905 .25881905 .96592583 24.398777 52.454487)"><path d="m1.48067728 3.30586951h2.20593991l5.29446758 5.39385989h66.62213863l5.5591909-8.44951923s2.1177871 13.66929943 2.20594 15.23523353c.0884176 1.565934.3531409 3.5666758.7060172 7.7425s1.0588935 5.3938599 1.0588935 6.9597939c0 1.5659341-.7060172 3.3928572-.7941701 5.3935989-.0881529 2.0010028 1.3236169 11.7447665 1.7649108 13.3107006.4410291 1.5659341.5294467 3.8276648.5294467 3.8276648l-2.2062046 1.5659341-9.3534712-5.2197802c-1.8527989.0597665-3.7053331.1195329-5.5578673.1790384-4.5421238.1461539-9.0842475.2925687-13.6261065.4387226-5.7174955.1839972-11.4352558.3679945-17.1527513.5519917-5.3789144.1732967-10.7578287.3465934-16.1367431.5196291-2.4322784 0-4.8783224.1490248-7.3092772.2356731-2.1874092.0777747-4.4084384-.0835165-6.49260556.7344231-2.16173111.8487363-3.77098453 2.1270604-6.21438132 1.6927747-.41693932-.0741209-2.43439619-.2502884-2.51804878-.8275961-.08841761-.6088874.97338786-8.5703572 1.41468174-12.0501237.44129387-3.4800274.88232302-3.7410164.88232302-9.047706 0-5.3069506-.17630577-4.7849725 0-8.8736264.17657049-4.0889148-.35287627-10.0044917-.35287627-10.0044917s-2.11778703-2.78396982-.52944675-9.30869509" fill="#c5e2e0" mask="url(#a)" transform="translate(1.733871 .571335)"/><path d="m.86946323 2.29530373c.61626138.00052002 1.23278635.00130003 1.84904773.00208005.86587624.00104002 1.88647679 1.57615458 2.44791252 2.14920715l2.836173 2.89542353c.10859696.11076243.22141128.22438492.36585578.28314621.13890921.05642124.29363352.05616123.44414047.05538122 4.40107627-.02652059 8.80294327-.00754017 13.20401957-.00754017h17.4914907 18.0529265 13.3479369c1.1824417 0 2.380962.17134376 3.5576048-.01170026 1.1302518-.17576385 1.5013793-1.05718319 2.3076853-1.74983839 1.8179448-1.56185426 3.7584564-2.97342523 5.6235829-4.47833825-.2680658.21632474-.0155516 2.50437494-.0171331 2.83562221-.0160786 3.37565406-.1723845 6.79212897.0176602 10.16440297.0877738 1.5600343.3513586 3.553238.7027172 7.7133293.3516222 4.1600912 1.0543394 5.3735379 1.0543394 6.9335721s-.7027172 3.3800741-.7907545 5.3735379c-.0877738 1.9932037 1.3179242 11.7002567 1.7573202 13.2602909.4393959 1.5600342.5271697 3.8132437.5271697 3.8132437l-2.1964526 1.5600342-9.3135071-5.2001141-64.57828867 2.0800456-5.7108294 3.553498s-2.10867881.2600057-2.19671615-.3465876c-.08777376-.6068533-1.22988692-10.3136463-.79075456-13.7803023.43939595-3.4669161.8787919-3.7269218.8787919-9.0136178s-.1758111-4.7666846 0-8.8401939c.17554751-4.0727294-.35135861-9.9649787-.35162219-9.9667987-.05798867-.6497543-.71062476-1.5296136-.86165888-2.22330879-.50608292-2.32263096-.21350373-4.76382452.34134238-7.05447478" fill="#fff"/><path d="m57.779625 39.9373153h-24.7505932c-2.9438164 0-5.3523457-2.3409832-5.3523457-5.2022416v-13.1669454c0-2.8612584 2.4085293-5.2022416 5.3523457-5.2022416h24.7505932c2.9438164 0 5.3523457 2.3409832 5.3523457 5.2022416v13.1669454c0 2.8612584-2.4085293 5.2022416-5.3523457 5.2022416" fill="#f26e8b"/><path d="m56.3817811 39.5675738h-24.7505932c-2.9438164 0-5.3523457-2.3409832-5.3523457-5.2022416v-13.1669454c0-2.8612584 2.4085293-5.2022416 5.3523457-5.2022416h24.7505932c2.9438164 0 5.3523457 2.3409832 5.3523457 5.2022416v13.1669454c0 2.8612584-2.4085293 5.2022416-5.3523457 5.2022416" fill="#e9364b"/><path d="m54.1988741 16.4823806h-1.2406549v-.5908401h-1.0736952v1.6206266h2.3143501c2.7202069 0 4.9330928 1.934969 4.9330928 4.3130037v9.801766c0 2.3782921-2.2128859 4.3132611-4.9330928 4.3132611l-.0445584.0018021c-.0695217.0054064-1.7267704.1477744-3.9409984 1.2061376-.7140074.3416317-1.0745005.696908-1.3638614.9826738-.5757691.5681848-1.0307474 1.0166568-5.2860702 1.0166568-4.2555911 0-4.710301-.448472-5.2860701-1.0166568-.2896293-.2857658-.6498541-.6410421-1.3638614-.9826738-2.2144965-1.0583632-3.8714767-1.2007312-3.9409984-1.2061376l-.0445584-.0018021c-2.7202069 0-4.9330928-1.934969-4.9330928-4.3132611v-9.801766c0-2.3780347 2.2128859-4.3130037 4.9330928-4.3130037h2.3143501v-1.6206266h-1.0736952v.5908401h-1.2406549c-3.3120814 0-6.0067881 2.3968282-6.0067881 5.3427902v9.801766c0 2.9379811 2.6799434 5.3299179 5.9794089 5.3430477.1793071.0185362 1.6376537.1935999 3.5335311 1.1000695.5508056.2631105.8044661.5136061 1.0734268.7787761.8350665.8235718 1.5745741 1.3284247 6.0559096 1.3284247 4.4813356 0 5.2208432-.5048529 6.0556413-1.3284247.2689606-.26517.5228896-.5156656 1.0734268-.7787761 1.8985616-.9077569 3.3582503-1.0820482 3.5335311-1.1000695 3.3000023-.0128723 5.9796773-2.4048091 5.9796773-5.3430477v-9.801766c0-2.945962-2.6947067-5.3427902-6.0067881-5.3427902" fill="#ffd8dd"/></g></g></svg>

<?xml version="1.0" encoding="UTF-8"?>
<svg width="143px" height="143px" viewBox="0 0 143 143" version="1.1" xmlns="http://www.w3.org/2000/svg" xmlns:xlink="http://www.w3.org/1999/xlink">
    <!-- Generator: Sketch 61.1 (89650) - https://sketch.com -->
    <title>Group 4</title>
    <desc>Created with Sketch.</desc>
    <defs>
        <polygon id="path-1" points="0.0607927604 0.250210165 86.633373 0.250210165 86.633373 54.285636 0.0607927604 54.285636"></polygon>
    </defs>
    <g id="Page-1" stroke="none" stroke-width="1" fill="none" fill-rule="evenodd">
        <g id="QUELS-PRODUITS-DEPOSER" transform="translate(-796.000000, -1061.000000)">
            <g id="Group-4" transform="translate(796.000000, 1061.000000)">
                <g id="Group-16-Copy" fill="#FFD8DD">
                    <circle id="Oval-Copy-5" cx="71.5" cy="71.5" r="71.5"></circle>
                </g>
                <g id="Group-12" transform="translate(74.500000, 67.500000) rotate(-15.000000) translate(-74.500000, -67.500000) translate(30.000000, 40.000000)">
                    <g id="Group-3" transform="translate(1.733871, 0.571335)">
                        <mask id="mask-2" fill="white">
                            <use xlink:href="#path-1"></use>
                        </mask>
                        <g id="Clip-2"></g>
                        <path d="M1.48067728,3.30586951 L3.68661719,3.30586951 L8.98108477,8.6997294 L75.6032234,8.6997294 L81.1624143,0.250210165 C81.1624143,0.250210165 83.2802014,13.9195096 83.3683543,15.4854437 C83.4567719,17.0513777 83.7214952,19.0521195 84.0743715,23.2279437 C84.4272478,27.4037679 85.133265,28.6218036 85.133265,30.1877376 C85.133265,31.7536717 84.4272478,33.5805948 84.3390949,35.5813365 C84.250942,37.5823393 85.6627118,47.326103 86.1040057,48.8920371 C86.5450348,50.4579712 86.6334524,52.7197019 86.6334524,52.7197019 L84.4272478,54.285636 L75.0737766,49.0658558 C73.2209777,49.1256223 71.3684435,49.1853887 69.5159093,49.2448942 C64.9737855,49.3910481 60.4316618,49.5374629 55.8898028,49.6836168 C50.1723073,49.867614 44.454547,50.0516113 38.7370515,50.2356085 C33.3581371,50.4089052 27.9792228,50.5822019 22.6003084,50.7552376 C20.16803,50.7552376 17.721986,50.9042624 15.2910312,50.9909107 C13.103622,51.0686854 10.8825928,50.9073942 8.79842564,51.7253338 C6.63669453,52.5740701 5.02744111,53.8523942 2.58404432,53.4181085 C2.167105,53.3439876 0.149648126,53.1678201 0.0659955384,52.5905124 C-0.0224220702,51.981625 1.0393834,44.0201552 1.48067728,40.5403887 C1.92197115,37.0603613 2.3630003,36.7993723 2.3630003,31.4926827 C2.3630003,26.1857321 2.18669453,26.7077102 2.3630003,22.6190563 C2.53957079,18.5301415 2.01012403,12.6145646 2.01012403,12.6145646 C2.01012403,12.6145646 -0.107662998,9.83059478 1.48067728,3.30586951" id="Fill-1" fill="#C5E2E0" mask="url(#mask-2)"></path>
                    </g>
                    <path d="M0.869463229,2.29530373 C1.48572461,2.29582375 2.10224958,2.29660376 2.71851096,2.29738378 C3.5843872,2.2984238 4.60498775,3.87353836 5.16642348,4.44659093 L8.00259648,7.34201446 C8.11119344,7.45277689 8.22400776,7.56639938 8.36845226,7.62516067 C8.50736147,7.68158191 8.66208578,7.6813219 8.81259273,7.68054189 C13.213669,7.6540213 17.615536,7.67300172 22.0166123,7.67300172 L39.508103,7.67300172 L57.5610295,7.67300172 L70.9089664,7.67300172 C72.0914081,7.67300172 73.2899284,7.84434548 74.4665712,7.66130146 C75.596823,7.48553761 75.9679505,6.60411827 76.7742565,5.91146307 C78.5922013,4.34960881 80.5327129,2.93803784 82.3978394,1.43312482 C82.1297736,1.64944956 82.3822878,3.93749976 82.3807063,4.26874703 C82.3646277,7.64440109 82.2083218,11.060876 82.3983665,14.43315 C82.4861403,15.9931843 82.7497251,17.986388 83.1010837,22.1464793 C83.4527059,26.3065705 84.1554231,27.5200172 84.1554231,29.0800514 C84.1554231,30.6400856 83.4527059,32.4601255 83.3646686,34.4535893 C83.2768948,36.446793 84.6825928,46.153846 85.1219888,47.7138802 C85.5613847,49.2739144 85.6491585,51.5271239 85.6491585,51.5271239 L83.4527059,53.0871581 L74.1391988,47.887044 L9.56091013,49.9670896 L3.85008073,53.5205876 C3.85008073,53.5205876 1.74140192,53.7805933 1.65336458,53.174 C1.56559082,52.5671467 0.42347766,42.8603537 0.862610023,39.3936977 C1.30200597,35.9267816 1.74140192,35.6667759 1.74140192,30.3800799 C1.74140192,25.0933839 1.56559082,25.6133953 1.74140192,21.539886 C1.91694943,17.4671566 1.39004331,11.5749073 1.38977973,11.5730873 C1.33179106,10.923333 0.679154966,10.0434737 0.528120846,9.34977851 C0.0220379307,7.02714755 0.314617116,4.58595399 0.869463229,2.29530373" id="Fill-4" fill="#FFFFFF"></path>
                    <path d="M57.779625,39.9373153 L33.0290318,39.9373153 C30.0852154,39.9373153 27.6766861,37.5963321 27.6766861,34.7350737 L27.6766861,21.5681283 C27.6766861,18.7068699 30.0852154,16.3658867 33.0290318,16.3658867 L57.779625,16.3658867 C60.7234414,16.3658867 63.1319707,18.7068699 63.1319707,21.5681283 L63.1319707,34.7350737 C63.1319707,37.5963321 60.7234414,39.9373153 57.779625,39.9373153" id="Fill-6" fill="#F26E8B"></path>
                    <path d="M56.3817811,39.5675738 L31.6311879,39.5675738 C28.6873715,39.5675738 26.2788422,37.2265906 26.2788422,34.3653322 L26.2788422,21.1983868 C26.2788422,18.3371284 28.6873715,15.9961452 31.6311879,15.9961452 L56.3817811,15.9961452 C59.3255975,15.9961452 61.7341268,18.3371284 61.7341268,21.1983868 L61.7341268,34.3653322 C61.7341268,37.2265906 59.3255975,39.5675738 56.3817811,39.5675738" id="Fill-8" fill="#E9364B"></path>
                    <path d="M54.1988741,16.4823806 L52.9582192,16.4823806 L52.9582192,15.8915405 L51.884524,15.8915405 L51.884524,17.5121671 L54.1988741,17.5121671 C56.919081,17.5121671 59.1319669,19.4471361 59.1319669,21.8251708 L59.1319669,31.6269368 C59.1319669,34.0052289 56.919081,35.9401979 54.1988741,35.9401979 L54.1543157,35.942 C54.084794,35.9474064 52.4275453,36.0897744 50.2133173,37.1481376 C49.4993099,37.4897693 49.1388168,37.8450456 48.8494559,38.1308114 C48.2736868,38.6989962 47.8187085,39.1474682 43.5633857,39.1474682 C39.3077946,39.1474682 38.8530847,38.6989962 38.2773156,38.1308114 C37.9876863,37.8450456 37.6274615,37.4897693 36.9134542,37.1481376 C34.6989577,36.0897744 33.0419775,35.9474064 32.9724558,35.942 L32.9278974,35.9401979 C30.2076905,35.9401979 27.9948046,34.0052289 27.9948046,31.6269368 L27.9948046,21.8251708 C27.9948046,19.4471361 30.2076905,17.5121671 32.9278974,17.5121671 L35.2422475,17.5121671 L35.2422475,15.8915405 L34.1685523,15.8915405 L34.1685523,16.4823806 L32.9278974,16.4823806 C29.615816,16.4823806 26.9211093,18.8792088 26.9211093,21.8251708 L26.9211093,31.6269368 C26.9211093,34.5649179 29.6010527,36.9568547 32.9005182,36.9699845 C33.0798253,36.9885207 34.5381719,37.1635844 36.4340493,38.070054 C36.9848549,38.3331645 37.2385154,38.5836601 37.5074761,38.8488301 C38.3425426,39.6724019 39.0820502,40.1772548 43.5633857,40.1772548 C48.0447213,40.1772548 48.7842289,39.6724019 49.619027,38.8488301 C49.8879876,38.5836601 50.1419166,38.3331645 50.6924538,38.070054 C52.5910154,37.1622971 54.0507041,36.9880058 54.2259849,36.9699845 C57.5259872,36.9571122 60.2056622,34.5651754 60.2056622,31.6269368 L60.2056622,21.8251708 C60.2056622,18.8792088 57.5109555,16.4823806 54.1988741,16.4823806" id="Fill-10" fill="#FFD8DD"></path>
                </g>
            </g>
        </g>
    </g>
</svg>
